X:1
T: The Irish Show Boy
C:
R:Jig
Q:180
K:D
M:6/8
L:1/16
|:fe|d4A2 F2E2D2|E2F2E2 c2B2c2|d2f2d2 A2F2D2|E2D2D2 D4fe|
d4A2 F2E2D2|E2F2E2 c2B2c2|d2f2d2 A2F2D2|E2D2D2 D4:|
|:A2|d2c2d2 B2c2d2|e2f2d2 c2B2A2|d2c2d2 e2f2g2|f2d2d2 d4f2|
g2f2g2 B2c2d2|e2f2d2 c2B2A2|d2A2G2 g2f2e2|f2d2d2 d4:|
